dist/img/contacts-title.svg

<svg width="37" height="37" viewBox="0 0 37 37" fill="none" xmlns="http://www.w3.org/2000/svg">
<path d="M34.3902 23.1207C33.8776 23.1207 33.4622 23.5382 33.4622 24.0535V32.3357C33.4604 33.8807 32.2152 35.1327 30.6783 35.1342H4.63993C3.10295 35.1327 1.85778 33.8807 1.85597 32.3357V8.02779C1.85778 6.4832 3.10295 5.2312 4.63993 5.22938H12.8794C13.392 5.22938 13.8074 4.8118 13.8074 4.29657C13.8074 3.78171 13.392 3.36377 12.8794 3.36377H4.63993C2.07854 3.36668 0.00289995 5.45311 0 8.02779V32.3361C0.00289995 34.9108 2.07854 36.9972 4.63993 37.0001H30.6783C33.2396 36.9972 35.3153 34.9108 35.3182 32.3361V24.0535C35.3182 23.5382 34.9028 23.1207 34.3902 23.1207Z" fill="#333333"/>
<path d="M34.7162 1.20903C33.104 -0.403009 30.4903 -0.403009 28.8781 1.20903L12.5119 17.5738C12.3998 17.6859 12.3188 17.8249 12.2765 17.9776L10.1243 25.7468C10.0358 26.0653 10.1257 26.4064 10.3594 26.6404C10.5934 26.874 10.9345 26.964 11.2531 26.8758L19.023 24.7235C19.1756 24.6812 19.3147 24.6002 19.4268 24.4881L35.7927 8.12297C37.4023 6.50986 37.4023 3.8985 35.7927 2.28539L34.7162 1.20903ZM14.5108 18.17L27.9052 4.77636L32.225 9.09578L18.8302 22.4894L14.5108 18.17ZM13.6479 19.9013L17.0991 23.3526L12.3252 24.6751L13.6479 19.9013ZM34.4955 6.82589L33.5226 7.7987L29.2024 3.47892L30.1757 2.50611C31.0712 1.61069 32.5232 1.61069 33.4186 2.50611L34.4955 3.58247C35.3895 4.47896 35.3895 5.92976 34.4955 6.82589Z" fill="#333333"/>
</svg>

<svg width="37" height="37" fill="none" xmlns="http://www.w3.org/2000/svg"><path d="M34.39 23.12a.93.93 0 00-.928.933v8.283a2.794 2.794 0 01-2.784 2.798H4.64a2.794 2.794 0 01-2.784-2.798V8.028A2.794 2.794 0 014.64 5.229h8.24a.93.93 0 00.927-.932.93.93 0 00-.928-.933H4.64C2.08 3.367.004 5.454 0 8.028v24.308C.003 34.911 2.079 36.997 4.64 37h26.038c2.562-.003 4.637-2.09 4.64-4.664v-8.282a.93.93 0 00-.928-.933z" fill="#333"/><path d="M34.716 1.209a4.128 4.128 0 00-5.838 0L12.512 17.574a.917.917 0 00-.236.404l-2.152 7.769a.917.917 0 001.13 1.129l7.769-2.152a.918.918 0 00.404-.236L35.793 8.123a4.132 4.132 0 000-5.838L34.716 1.21zM14.511 18.17L27.905 4.776l4.32 4.32L18.83 22.489l-4.32-4.319zm-.863 1.731l3.451 3.452-4.774 1.322 1.323-4.774zM34.496 6.826l-.973.973-4.32-4.32.973-.973a2.293 2.293 0 013.243 0l1.077 1.076a2.296 2.296 0 010 3.244z" fill="#333"/></svg>
